assets/icons/musicnote.svg

<svg xml:space="preserve" fill="#ebebeb" style="fill-rule:evenodd;clip-rule:evenodd;stroke-linejoin:round;stroke-miterlimit:2" viewBox="0 0 245 255" xmlns="http://www.w3.org/2000/svg"><path d="M2215 8571c-319-65-590-121-603-125-52-17-52-13-52-714v-649l-57 29c-155 76-345 47-464-72-65-65-92-141-87-240 8-132 79-233 206-293 62-30 75-32 172-32 95 0 111 3 167 29 73 33 152 112 186 183l22 48 3 787c2 734 4 787 20 792 9 3 139 30 287 60 149 31 370 76 493 101s227 45 233 45c5 0 9-230 9-591 0-325-3-589-7-587-147 74-253 84-380 36-67-25-156-105-191-172-23-44-27-63-27-136s4-93 28-142c35-72 121-150 197-179 172-67 384-9 471 129 61 96 59 70 59 954v809l-25 24c-15 16-35 25-52 24-15 0-289-54-608-118m424-1343c97-51 138-156 93-244-25-49-45-67-102-93-137-62-323 22-337 152-18 159 185 267 346 185m-1204-248c83-35 135-119 121-195-9-46-44-94-94-129-37-26-54-31-118-34-65-4-81-1-130 23-80 39-117 98-112 177 3 46 11 65 35 95 70 87 186 111 298 63" style="fill:#fff;fill-rule:nonzero" transform="matrix(.1 0 0 -.1 -75 880)"/></svg>

<?xml version="1.0" encoding="UTF-8" standalone="no"?>
<!DOCTYPE svg PUBLIC "-//W3C//DTD SVG 1.1//EN" "http://www.w3.org/Graphics/SVG/1.1/DTD/svg11.dtd">
<svg width="100%" height="100%" viewBox="0 0 245 255" version="1.1" xmlns="http://www.w3.org/2000/svg" xmlns:xlink="http://www.w3.org/1999/xlink" xml:space="preserve" xmlns:serif="http://www.serif.com/" style="fill-rule:evenodd;clip-rule:evenodd;stroke-linejoin:round;stroke-miterlimit:2;">
    <g transform="matrix(0.1,0,0,-0.1,-75,880)">
        <g>
            <path d="M2215,8571C1896,8506 1625,8450 1612,8446C1560,8429 1560,8433 1560,7732L1560,7083L1503,7112C1348,7188 1158,7159 1039,7040C974,6975 947,6899 952,6800C960,6668 1031,6567 1158,6507C1220,6477 1233,6475 1330,6475C1425,6475 1441,6478 1497,6504C1570,6537 1649,6616 1683,6687L1705,6735L1708,7522C1710,8256 1712,8309 1728,8314C1737,8317 1867,8344 2015,8374C2164,8405 2385,8450 2508,8475C2631,8500 2735,8520 2741,8520C2746,8520 2750,8290 2750,7929C2750,7604 2747,7340 2743,7342C2596,7416 2490,7426 2363,7378C2296,7353 2207,7273 2172,7206C2149,7162 2145,7143 2145,7070C2145,6997 2149,6977 2173,6928C2208,6856 2294,6778 2370,6749C2542,6682 2754,6740 2841,6878C2902,6974 2900,6948 2900,7832L2900,8641L2875,8665C2860,8681 2840,8690 2823,8689C2808,8689 2534,8635 2215,8571ZM2639,7228C2736,7177 2777,7072 2732,6984C2707,6935 2687,6917 2630,6891C2493,6829 2307,6913 2293,7043C2275,7202 2478,7310 2639,7228ZM1435,6980C1518,6945 1570,6861 1556,6785C1547,6739 1512,6691 1462,6656C1425,6630 1408,6625 1344,6622C1279,6618 1263,6621 1214,6645C1134,6684 1097,6743 1102,6822C1105,6868 1113,6887 1137,6917C1207,7004 1323,7028 1435,6980Z" style="fill:white;fill-rule:nonzero;"/>
        </g>
    </g>
</svg>
